X: 34383
T: Rianne's
R: waltz
M: 3/4
K: Gmajor
DE|:G3 B gf|d3 d (3BAG|A3 G AB|AG E2 DE|
G3B gf|d3 A Bd|e4ef|d3 c BA|
G3 B gf|d3 d (3BAG|A3 G AB|AG E2 DE|
G3B AB|GE D2 de|d2 A3B|1 G3 A DE:|2 G3 A Bd||
g3 f ed|e3 d dB|A3 G AB|AG EA Bd|
g3 f ed|e3 d dB|d2 e2 g2|a4 (3aba|
g3 f ed|e3 d dB|A3 G AB|AG E2 DE|
G3B AB|GE D2 de|d2 A3B|1 G3 A Bd:|2 G3 E DE||

